public/assests/icons/arrow-long.svg

<svg width="40" height="8" viewBox="0 0 40 8" fill="none" xmlns="http://www.w3.org/2000/svg">
<path d="M39.5415 4.35355C39.7368 4.15829 39.7368 3.84171 39.5415 3.64645L36.3595 0.464466C36.1643 0.269204 35.8477 0.269204 35.6524 0.464466C35.4572 0.659728 35.4572 0.976311 35.6524 1.17157L38.4809 4L35.6524 6.82843C35.4572 7.02369 35.4572 7.34027 35.6524 7.53553C35.8477 7.7308 36.1643 7.7308 36.3595 7.53553L39.5415 4.35355ZM0.13916 4.5L39.188 4.5V3.5L0.13916 3.5L0.13916 4.5Z" fill="white"/>
</svg>

<svg width="40" height="8" fill="none" xmlns="http://www.w3.org/2000/svg"><path d="M39.5415 4.35355c.1953-.19526.1953-.51184 0-.7071L36.3595.46447c-.1952-.19527-.5118-.19527-.7071 0-.1952.19526-.1952.51184 0 .7071L38.4809 4l-2.8285 2.82843c-.1952.19526-.1952.51184 0 .7071.1953.19527.5119.19527.7071 0l3.182-3.18198ZM.13916 4.5H39.188v-1H.13916v1Z" fill="#fff"/></svg>
